X: 2363
T: BLUE VIOLIT
T: Blue Violets
N: The index has "Violets", while the tune has "VIOLIT".
R: Clog Dance.
%R: clog dance, hornpipe, reel
B: James Kerr "Merry Melodies" v.2 p.40 #363
Z: 2016 John Chambers <jc:trillian.mit.edu>
M: C
L: 1/8
K: A
(uagf) | e>fe>d c>dc>B | (3AcB (3AGF E>EF>G |\
[1 A>GA>c e>cA>c | B>e^d>f e2 :|\
[2 (3AGA (3cBA (3Bfe (3dcB |
A2c2A2 |:\
B2 |\
B>^AB>e g>f e>^d | c>^Bc>f a>gf>e |\
^d>ba>f d>Bc>d |[1 (3egf (3e^dc B2 :|[2 e2g2e2 |]
